svg/UnitedNationsOCHA-Humanitarian/telecommunications_radio_icon.svg

<svg xmlns="http://www.w3.org/2000/svg" viewBox="0 0 32 32" enable-background="new 0 0 32 32"><path fill="#407cca" d="m9.602 11.513l11.295-5.354c.286.119.613.131.913-.012.563-.266.803-.938.537-1.503-.267-.563-.94-.803-1.503-.534-.302.141-.498.4-.588.694l-14.161 6.709h-1.345v16.487h22.5v-16.487h-17.648m-1.472 13.06h-.75v-5.416h.75v5.416m2.72 0h-.75v-5.416h.75v5.416m2.722 0h-.75v-5.416h.75v5.416m2.719 0h-.75v-5.416h.75v5.416m5.621 0c-1.493 0-2.706-1.213-2.706-2.71 0-1.493 1.213-2.706 2.706-2.706 1.496 0 2.708 1.213 2.708 2.706 0 1.497-1.212 2.71-2.708 2.71m2.708-8.02h-17.24v-2.806h17.24v2.806"/></svg>

<?xml version="1.0" encoding="utf-8"?>
<!-- Generator: Adobe Illustrator 16.0.3, SVG Export Plug-In . SVG Version: 6.00 Build 0)  -->
<!DOCTYPE svg PUBLIC "-//W3C//DTD SVG 1.1//EN" "http://www.w3.org/Graphics/SVG/1.1/DTD/svg11.dtd">
<svg version="1.1" id="Layer_1" xmlns="http://www.w3.org/2000/svg" xmlns:xlink="http://www.w3.org/1999/xlink" x="0px" y="0px"
	 width="32px" height="32px" viewBox="0 0 32 32" enable-background="new 0 0 32 32" xml:space="preserve">
<path fill="#407CCA" d="M9.602,11.513l11.295-5.354c0.286,0.119,0.613,0.131,0.913-0.012c0.563-0.266,0.803-0.938,0.537-1.503
	c-0.267-0.563-0.94-0.803-1.503-0.534c-0.302,0.141-0.498,0.4-0.588,0.694L6.095,11.513H4.75V28h22.5V11.513H9.602z M8.13,24.575
	H7.38v-5.416h0.75V24.575z M10.85,24.575H10.1v-5.416h0.75V24.575z M13.572,24.575h-0.75v-5.416h0.75V24.575z M16.291,24.575h-0.75
	v-5.416h0.75V24.575z M21.912,24.575c-1.493,0-2.706-1.213-2.706-2.71c0-1.493,1.213-2.706,2.706-2.706
	c1.496,0,2.708,1.213,2.708,2.706C24.62,23.362,23.408,24.575,21.912,24.575z M24.62,16.553H7.38v-2.806h17.24V16.553z"/>
</svg>
